X: 42220
T: Way To Judique, The
R: jig
M: 6/8
K: Amajor
c/d/|:efe c2d|eae c2e|dcd B2c|d3 dcd|
efe ce=g|fef dfa|gbg efg|1 a3 a2 c/d/:|2 a3 a2 b||
|:agf edc|Bcd f2e|cde a2e|cde f2g|
agf edc|Bcd f2a|efe dcB|1 A3 a3:|2 A3 A2||

